Adwaita++/actions/16/format-node-curve.svg

<svg height="16" viewBox="0 0 16 16" width="16" xmlns="http://www.w3.org/2000/svg">
  <path d="m12 1v1 .0527344a12 12 0 0 0 -6.9042969 2.9472656h-2.0957031v2.4140625a12 12 0 0 0 -1.9414062 5.5859375h-.0585938-1v3h3v-3h-.9492188a11 11 0 0 1 1.7460938-5h2.203125v-2.4570312a11 11 0 0 1 6-2.4863282v.9433594h3v-3z" fill="#474747"/>
</svg>

<svg xmlns="http://www.w3.org/2000/svg" width="16" height="16" viewBox="0 0 16 16">
 <defs>
  <style id="current-color-scheme" type="text/css">
   .ColorScheme-Text { color:#474747; } .ColorScheme-Highlight { color:#4285f4; }
  </style>
 </defs>
 <path style="fill:currentColor" class="ColorScheme-Text" d="M 12 1 L 12 2 L 12 2.0527344 A 12 12 0 0 0 5.0957031 5 L 3 5 L 3 7.4140625 A 12 12 0 0 0 1.0585938 13 L 1 13 L 0 13 L 0 16 L 3 16 L 3 13 L 2.0507812 13 A 11 11 0 0 1 3.796875 8 L 6 8 L 6 5.5429688 A 11 11 0 0 1 12 3.0566406 L 12 4 L 15 4 L 15 1 L 12 1 z"/>
</svg>
